X: 162
T: Gulljenta - stämma
N:Stämma av Jon Magnusson
Z:Transcribed to abcby Jon Magnusson 080923
M: 3/4
L: 1/8
K: Am
[V:1] |:E2 A>c (3e^f^g|(3 a2e2c2 A2|d>^c d>e (3 fdf|(3:2:4 e2c2ec A>A|B>B e2 e>B|
[V:2] |:A,2 E>A (3cde |(3 e2c2A2 E>E|F>E F>A d>A|(3:2:4 A2E2AE C>A,|G,>G, [B,2E2] [B,E]>E|
[V:1] c>c (3 Bdc A>c|e>c e>a (3 ^g^fg|[1 (3 ba^g a4:|[2 (3 ba^g a3 ^g|]
[V:2] A>A (3 EAE C>A,|A,>E A>c (3BAB |[1 (3 dcB c4:|[2 (3 dcB c4|]
[V:1] [K:E]|: (3:2:4 b2bge2 B>e|g>g (3 fag e>B|G>E G>B e>e|(3:2:4 d2c2Ac B>B|
[V:2] [K:E]|: (3:2:4 B2BGG2 E>E|B,>E (3 EFG E>E|[B,2E2][B,2E2][B,2E2]|[B,2E2][B,2E2][B,2E2]|
[V:1] (3:2:4 f2fdB2 d>f|(3:2:4 e2c2Ac B>A|(3:2:4 G2Beg2 b>g|[1 (3 afd e3 g:|][2 (3 afd e4|]
[V:2] [B,2F2][B,2F2][B,2F2]| [C2E2][C2E2][C2E2]| [B,2E2][B,2E2] F>F|[1 (3 FAF E4:|[2 (3 FAF E4|]
(:musicend:)
(:music:)
